!!!COM:	la Rue, Pierre de
!!!CDT:	~1452///-1518/11/20
!!!OPR:	Missa De sancta cruce
!!!ONM:	3
!!!OTL:	Credo
!!!AGN:	Mass; Credo
!!!SCT:	Rue1011c
!!!SCA:	Rue1011c
!!!voices:	5
!!!voices-OPR:	5
**kern	**kern	**kern	**kern	**kern
*staff5	*staff4	*staff3	*staff2	*staff1
*Ivox	*Ivox	*Ivox	*Ivox	*Ivox
*I"Bassus	*I"Tenor2	*I"Tenor	*I"Contra	*I"Discantus
*I'B	*I'T2	*I'T	*I'C	*I'D
*>[A,B]	*>[A,B]	*>[A,B]	*>[A,B]	*>[A,B]
*>A	*>A	*>A	*>A	*>A
*clefF4	*clefGv2	*clefGv2	*clefG2	*clefG2
*k[b-]	*k[b-]	*k[b-]	*k[b-]	*k[b-]
*M3/1	*M3/1	*M3/1	*M3/1	*M3/1
*met(O)	*met(O)	*met(O)	*met(O)	*met(O)
!!section: Patrem
!!!OMD: Patrem
=1-	=1-	=1-	=1-	=1-
1r	0.r	0.r	1g	0.r
1r	.	.	2g/	.
.	.	.	2g/	.
1G	.	.	2g/	.
.	.	.	[2b-\	.
=2	=2	=2	=2	=2
2G\	0.r	0.r	2b-\]	1r
2G\	.	.	2a/	.
2G\	.	.	2g/	1r
1B-	.	.	4f/	.
.	.	.	4e/	.
.	.	.	[1d	1dd
2A\	.	.	.	.
=3	=3	=3	=3	=3
2G\	1r	0.r	1d]	2dd\
4F\	.	.	.	2dd\
4E\	.	.	.	.
[0D	1d	.	2r	2dd\
.	.	.	2d/	1ff
.	2d\	.	1f	.
.	2d\	.	.	2ee\
=4	=4	=4	=4	=4
1D]	2d\	0.r	2f/	2.dd\
.	1f	.	2f/	.
.	.	.	.	8cc\L
.	.	.	.	8b-\J
1r	.	.	2d/	0a
.	2e\	.	2c/	.
2r	2.d\	.	2.f/	.
2D\	.	.	.	.
.	8c\L	.	4g/	.
.	8B-\J	.	.	.
=5	=5	=5	=5	=5
2F\	0A	0.r	2a/	2r
1F	.	.	1a	2a/
.	.	.	.	2cc\
2F\	.	.	4g/	1cc
.	.	.	4f/	.
1A	1r	.	1e	.
.	.	.	.	2cc\
=6	=6	=6	=6	=6
2.D\	2r	0.r	2d/	2dd\
.	2A/	.	2.a/	2.ff\
4D\	.	.	.	.
0C	2c\	.	.	.
.	.	.	4g/	4ee\
.	1c	.	4g/	4ee\
.	.	.	4f/	4dd\
.	.	.	1g	2ee\
.	2c\	.	.	2ee\
=7	=7	=7	=7	=7
2F\	2d\	0.r	2f/	2a/
4F\	2.f\	.	2.a/	4a/
4G\	.	.	.	4b-\
2A\	.	.	.	2cc\
.	4e\	.	4g/	.
2B-\	4e\	.	2g/	2.dd\
.	4d\	.	.	.
1A	1e	.	1a	.
.	.	.	.	4cc#i\
.	.	.	.	2cc#i\
=8	=8	=8	=8	=8
0D	2r	0.r	2r	0dd
.	1d	.	1f	.
.	4c\	.	4e/	.
.	4B-\	.	4d/	.
1r	2c\	.	2e/	1r
.	2B-\	.	2d/	.
=9	=9	=9	=9	=9
1r	2d\	0.r	2f/	1r
.	2e\	.	2g/	.
2r	0f	.	1a	2r
1F	.	.	.	1a
.	.	.	1r	.
4E\	.	.	.	4g/
4D\	.	.	.	4f/
=10	=10	=10	=10	=10
2E\	2r	0.r	2r	2g/
2D\	1f	.	1a	2f/
2F\	.	.	.	2a/
2G\	4e\	.	4g/	2b-\
.	4d\	.	4f/	.
2A\	2c\	.	2e/	1cc
[2A\	2f\	.	2a/	.
=11	=11	=11	=11	=11
2A\]	2c\	0.r	2e/	1r
4G\	2f\	.	2a/	.
4F\	.	.	.	.
2G\	2e\	.	2g/	2r
2A\	2c\	.	2e/	1cc
1F	2.f\	.	2.a/	.
.	.	.	.	4b-\
.	4e\	.	4g/	4a/
=12	=12	=12	=12	=12
2r	2d\	0.r	2f/	2b-\
1A	1c	.	4e/	2cc\
.	.	.	4d/	.
.	.	.	1c	1a
4G\	4B-\	.	.	.
4F\	4A/	.	.	.
2G\	2B-\	.	2r	2r
2A\	2c\	.	[2a/	[2cc\
=13	=13	=13	=13	=13
1F	1A	0.r	2a/]	2cc\]
.	.	.	4g/	4b-\
.	.	.	4f/	4a/
2r	2r	.	2g/	2b-\
1A	1c	.	2a/	2cc\
.	.	.	2f/	2a/
4G\	4B-\	.	[2g/	2cc\
4F\	4A/	.	.	.
=14	=14	=14	=14	=14
2G\	2B-\	0.r	4g/]	4b-\
.	.	.	4e/	4a/
2A\	2c\	.	2.f/	4a/
.	.	.	.	4g/
2F\	2A/	.	.	2a/
.	.	.	4e/	.
2G\	2B-\	.	4d/	1g
.	.	.	4c/	.
1D	1A	.	2d/	.
.	.	.	2d/	2f#i/
=15	=15	=15	=15	=15
0G	0B-	[0.G	2d/	0g
.	.	.	2g/	.
.	.	.	2g/	.
.	.	.	2.g/	.
1r	1r	.	.	1r
.	.	.	4f/	.
.	.	.	2d/	.
=16	=16	=16	=16	=16
2r	2r	0.G]	2e-i/	0.r
2G\	2B-\	.	4d/	.
.	.	.	4c/	.
2G\	2B-\	.	2B-/	.
2.G\	2B-\	.	2B-/	.
.	2G/	.	1B-	.
4F\	.	.	.	.
[2E-\	[2G/	.	.	.
=17	=17	=17	=17	=17
2E-\]	4G/]	[0.B-	2r	1r
.	4A/	.	.	.
4D\	4B-\	.	2B-/	.
4C/	4c\	.	.	.
2BB-/	0d	.	4B-/	2r
.	.	.	4c/	.
2BB-/	.	.	4d/	2dd\
.	.	.	4e/	.
[1BB-	.	.	2f/	2dd\
.	.	.	[2f/	[2dd\
=18	=18	=18	=18	=18
1BB-]	2r	0.B-]	2f/]	4dd\]
.	.	.	.	4cc\
.	1d	.	1f	1b-
2r	.	.	.	.
2BB-/	2d\	.	2d/	4a/
.	.	.	.	4g/
4BB-/	2d\	.	4d/	2f/
4C/	.	.	4e/	.
4D\	2d\	.	4f/	2f/
4E\	.	.	4g/	.
=19	=19	=19	=19	=19
2F\	2c\	0.A	2a/	1f
1F	1f	.	1a	.
.	.	.	.	2r
1F	4e\	.	1a	4f/
.	4d\	.	.	4g/
.	[1c	.	.	4a/
.	.	.	.	4b-\
[2C/	.	.	4g/	[2cc\
.	.	.	4f/	.
=20	=20	=20	=20	=20
2C/]	2c\]	0c	1e	2cc\]
2.C/	2c\	.	.	2g/
.	1G	.	1r	2.g/
4D\	.	.	.	.
4E\	.	.	.	.
4F\	.	.	.	4a/
2G\	2r	2B-\	1r	4b-\
.	.	.	.	4cc\
2G\	2B-\	2G/	.	[2dd\
=21	=21	=21	=21	=21
1D	2A/	2d\	0.r	4dd\]
.	.	.	.	4a/
.	2F/	2A/	.	4dd\
.	.	.	.	4cc\
1r	2.A/	1c	.	4b-\
.	.	.	.	4a/
.	.	.	.	1a
.	8B-\L	.	.	.
.	8c\J	.	.	.
1r	1d	1B-	.	.
.	.	.	.	2g/
=22	=22	=22	=22	=22
0.D	1r	0A	1a	1a
.	1d	.	2a/	1r
.	.	.	2a/	.
.	2d\	1r	2.f/	1r
.	2d\	.	.	.
.	.	.	4e/	.
=23	=23	=23	=23	=23
0.r	2.B-\	[0.B-	0d	1dd
.	4A/	.	.	.
.	0G	.	.	2dd\
.	.	.	.	2dd\
.	.	.	1g	2.b-\
.	.	.	.	4a/
=24	=24	=24	=24	=24
1G	2r	1B-]	2g/	0g
.	2B-\	.	2g/	.
2G\	2B-\	0G	2e/	.
2G\	2B-\	.	2d/	.
2.E\	2.c\	.	2c/	2r
.	.	.	[2g/	2cc\
4D\	4B-\	.	.	.
=25	=25	=25	=25	=25
1C	4c\	2G/	2g/]	2cc\
.	4B-\	.	.	.
.	4A/	1A	4f/	2ee\
.	4G/	.	4e/	.
1D	2.F/	.	1f	2dd\
.	.	2B-\	.	1ff
.	4G/	.	.	.
2C/	1G	1c	2r	.
2C/	.	.	[2g/	[2ee\
=26	=26	=26	=26	=26
1C	1c	0G	4g/]	2ee\]
.	.	.	4f/	.
.	.	.	4e/	2cc\
.	.	.	4d/	.
4C/	2e\	.	1c	2cc\
4D\	.	.	.	.
4E\	2e\	.	.	2cc\
4C/	.	.	.	.
[1G	[1d	[1B-	2d/	2b-\
.	.	.	[2b-\	[2dd\
=27	=27	=27	=27	=27
1G]	2d\]	1B-]	4b-\]	4dd\]
.	.	.	4a/	4cc\
.	2d\	.	1g	1b-
1G	2B-\	0d	.	.
.	2B-\	.	4f/	4a/
.	.	.	4e/	4g/
1D	2.F/	.	1f	1a
.	4G/	.	.	.
=28	=28	=28	=28	=28
2r	1A	0c	2r	2r
2F\	.	.	2f/	2a/
2F\	2r	.	2f/	2a/
1F	2A/	.	1f	1cc
.	2A/	[1A	.	.
4E\	[2c\	.	2f/	2cc\
4D\	.	.	.	.
=29	=29	=29	=29	=29
1C	2c\]	1A]	1e	1cc
.	2c\	.	.	.
0BB-	1f	0B-	0d	0dd
.	2f\	.	.	.
.	2f\	.	.	.
=30	=30	=30	=30	=30
1C	2e\	0G	1g	2r
.	1c	.	.	2cc\
2C/	.	.	2g/	2cc\
1C	4B-\	.	1g	2.cc\
.	4A/	.	.	.
.	1G	1c	.	.
.	.	.	.	4b-\
2E\	.	.	2e/	2g/
=31	=31	=31	=31	=31
1D	2A/	2A/	2f/	2f/
.	2F/	2B-\	2d/	4b-\
.	.	.	.	4a/
1C	2A/	1c	2e/	4a/
.	.	.	.	4g/
.	2G/	.	2.g/	1cc
1G	1G	1d	.	.
.	.	.	4f/	.
.	.	.	2d/	2bni\
=32	=32	=32	=32	=32
1C	2r	0c	1e	1cc
.	2G/	.	.	.
2r	2A/	.	1r	2r
2F\	2c\	.	.	2a/
2G\	2B-\	2r	1r	2b-\
[2A\	2A/	2e\	.	2cc\
=33	=33	=33	=33	=33
2A\]	2c\	2f\	0.r	2a/
1G	2.B-\	2.g\	.	2.b-\
.	4A/	4e\	.	4g/
2D\	2F/	4f\	.	4a/
.	.	4g\	.	4b-\
2G\	2r	2e\	.	2g/
[2F\	[2c\	[2f\	.	[2a/
=34	=34	=34	=34	=34
2F\]	4c\]	4f\]	0.r	4a/]
.	4A/	4d\	.	4f/
2C/	2c\	1e	.	4g/
.	.	.	.	4a/
4G\	2B-\	.	.	4b-\
4F\	.	.	.	4a/
4E\	1A	2.d\	.	4g/
4D\	.	.	.	4f/
1E	.	.	.	1g
.	.	4c#i\	.	.
.	2G/	2c#i\	.	.
=35	=35	=35	=35	=35
0D	0A	0.d	1a	0f
.	.	.	2.a/	.
.	.	.	4f/	.
1r	1r	.	2b-\	1r
.	.	.	[2a/	.
=36	=36	=36	=36	=36
1A	0.r	0.r	2a/]	0.r
.	.	.	4g/	.
.	.	.	4f/	.
2.A\	.	.	2e/	.
.	.	.	1f	.
4F\	.	.	.	.
2B-\	.	.	.	.
[2A\	.	.	4e/	.
.	.	.	4d/	.
=37	=37	=37	=37	=37
2A\]	1r	0.r	4c/	0.r
.	.	.	4d/	.
4G\	.	.	4e/	.
4F\	.	.	4f/	.
2E\	2r	.	2g/	.
2F\	2.F/	.	1a	.
1D	.	.	.	.
.	4G/	.	.	.
.	4A/	.	4g/	.
.	4B-\	.	4f/	.
=38	=38	=38	=38	=38
2r	2c\	0.r	1e	0.r
2.C/	2.A/	.	.	.
.	.	.	1r	.
4D\	4B-\	.	.	.
4E\	4c\	.	.	.
4F\	4d\	.	.	.
4G\	2e\	.	1r	.
4F\	.	.	.	.
4E\	[2d\	.	.	.
4D\	.	.	.	.
=39	=39	=39	=39	=39
1E	4d\]	0.r	1r	0.r
.	4c#i\	.	.	.
.	2c#i\	.	.	.
1D	2d\	.	2r	.
.	2A/	.	2.d/	.
1r	1B-	.	.	.
.	.	.	4e/	.
.	.	.	4f/	.
.	.	.	4g/	.
=40	=40	=40	=40	=40
0.r	1A	0.r	2a/	2r
.	.	.	2a/	2.f/
.	2r	.	2.a/	.
.	.	.	.	4g/
.	2d\	.	.	4a/
.	.	.	4g/	4b-\
.	2c\	.	2e/	2cc\
.	[2d\	.	[2f/	[2a/
=41	=41	=41	=41	=41
0.r	2d\]	0.r	4f/]	4a/]
.	.	.	4g/	4b-\
.	4c\	.	4a/	4cc\
.	4B-\	.	4b-\	4dd\
.	2c\	.	4g/	2ee\
.	.	.	4f/	.
.	2d\	.	4e/	2.dd\
.	.	.	4d/	.
.	1A	.	1e	.
.	.	.	.	4cc#i\
.	.	.	.	2cc#i\
=42	=42	=42	=42	=42
1D	2A/	[0.f	1d	2dd\
.	1B-	.	.	2dd\
2D\	.	.	2r	2dd\
2D\	2A/	.	2d/	2dd\
2D\	1A	.	2d/	2.ff\
2D\	.	.	2d/	.
.	.	.	.	4ee\
=43	=43	=43	=43	=43
1D	0.r	0.f]	2f/	2dd\
.	.	.	4e/	4cc\
.	.	.	4d/	4b-\
2F\	.	.	2c/	2a/
2BB-/	.	.	2.d/	1b-
1F	.	.	.	.
.	.	.	4A/	.
.	.	.	2c/	[2a/
=44	=44	=44	=44	=44
2.G\	1r	0d	1B-	4a/]
.	.	.	.	4g/
.	.	.	.	2g/
4F\	.	.	.	.
2D\	2r	.	1A	1a
2F\	1A	.	.	.
1E	.	1c	1r	1r
.	2G/	.	.	.
=45	=45	=45	=45	=45
0D	2A/	0d	0.r	2r
.	1B-	.	.	2d/
.	.	.	.	2.f/
.	4A/	.	.	.
.	4G/	.	.	4g/
1r	2F/	1d	.	2a/
.	2G/	.	.	2b-\
=46	=46	=46	=46	=46
1F	0A	1.c	1a	2cc\
.	.	.	.	2cc\
2F\	.	.	2a/	2cc\
2F\	.	2A/	2a/	2.dd\
1D	1r	1B-	2.f/	.
.	.	.	.	4ee\
.	.	.	.	2ff\
.	.	.	4g/	.
=47	=47	=47	=47	=47
2C/	1r	2c\	2a/	2ee\
2BB-/	.	2d\	2b-\	1dd
1C	1r	2.e\	1.g	.
.	.	.	.	1cc
.	.	4c\	.	.
1G	2r	1d	.	.
.	2d\	.	2g/	2bni\
=48	=48	=48	=48	=48
1C	1e	1c	1g	1cc
1F	2c\	2r	1r	1r
.	2d\	2A/	.	.
2F\	2c\	2A/	1r	1r
4F\	2A/	[2c\	.	.
4E\	.	.	.	.
=49	=49	=49	=49	=49
4F\	1.c	4c\]	1r	0.r
4G\	.	4A/	.	.
1A	.	4c\	.	.
.	.	4d\	.	.
.	.	2e\	1r	.
4G\	4B-\	1d	.	.
4F\	4A/	.	.	.
2E\	1G	.	1g	.
2E\	.	2c#i\	.	.
=50	=50	=50	=50	=50
1D	0.A	1d	2.f/	2r
.	.	.	.	2a/
.	.	.	4d/	.
1r	.	1r	4f/	2a/
.	.	.	4g/	.
.	.	.	1a	2.cc\
1r	.	1r	.	.
.	.	.	.	4a/
.	.	.	4g/	4cc\
.	.	.	4f/	4dd\
=51	=51	=51	=51	=51
0.r	0.r	0.r	2g/	2ee\
.	.	.	2a/	2ff\
.	.	.	4g/	2ee\
.	.	.	4f/	.
.	.	.	4e/	2.dd\
.	.	.	4d/	.
.	.	.	1e	.
.	.	.	.	4cc#i\
.	.	.	.	2cc#i\
=52	=52	=52	=52	=52
1.D	1A	[0.f	0d	1dd
.	2A/	.	.	1r
2D\	2A/	.	.	.
2A\	2c\	.	1r	1r
2B-\	[2d\	.	.	.
=53	=53	=53	=53	=53
2F\	2d\]	0f]	0.r	1a
1F	2c\	.	.	.
.	2A/	.	.	2a/
2.A\	2c\	.	.	2a/
.	4c\	1f	.	2cc\
4G\	4B-\	.	.	.
4F\	4A/	.	.	[2dd\
4E\	4G/	.	.	.
=54	=54	=54	=54	=54
2D\	1F	2.f\	0.r	2dd\]
1F	.	.	.	2cc\
.	.	4e\	.	.
.	1r	2c\	.	2a/
4E\	.	1d	.	2b-\
4D\	.	.	.	.
1E	1r	.	.	4cc\
.	.	.	.	4b-\
.	.	2c#i\	.	4a/
.	.	.	.	4g/
=55	=55	=55	=55	=55
1D	1A	1d	1a	1f
1r	2A/	0c	2a/	2r
.	2A/	.	2.a/	1cc
1r	1A	.	.	.
.	.	.	4g/	.
.	.	.	2e/	2cc\
=56	=56	=56	=56	=56
0D	0F	2A/	1d	2.dd\
.	.	1B-	.	.
.	.	.	.	4b-\
.	.	.	0f	4dd\
.	.	.	.	4ee\
.	.	4A/	.	1ff
.	.	4G/	.	.
1D	1F	2A/	.	.
.	.	2B-\	.	2dd\
=57	=57	=57	=57	=57
1C	2G/	0c	1e	2ee\
.	2G/	.	.	1cc
2r	2A/	.	2e/	.
2C/	2G/	.	2.g/	2cc\
2.G\	2.B-\	1r	.	2b-\
.	.	.	4f/	.
.	.	.	2d/	[2dd\
4F\	4A/	.	.	.
=58	=58	=58	=58	=58
2D\	2F/	2r	2f/	4dd\]
.	.	.	.	4cc\
2F\	2F/	1c	2c/	2a/
2C/	1G	.	2.g/	2g/
2.G\	.	2B-\	.	2.b-\
.	.	.	4f/	.
.	1r	2.d\	2d/	.
4F\	.	.	.	4a/
2D\	.	.	2f/	2f/
.	.	4c\	.	.
=59	=59	=59	=59	=59
2F\	0.r	2A/	2c/	2r
2C/	.	2G/	2.g/	2cc\
2.G\	.	2.B-\	.	2b-\
.	.	.	4f/	.
.	.	.	4d/	2.dd\
4F\	.	4A/	4e/	.
2D\	.	2F/	2f/	.
.	.	.	.	4cc\
2F\	.	[2c\	2f/	2a/
=60	=60	=60	=60	=60
2C/	1r	2c\]	1.g	2g/
2.G\	.	2B-\	.	1b-
.	1r	2.d\	.	.
4F\	.	.	.	.
2D\	.	.	2f/	2.a/
.	.	4c\	.	.
1G	1G	1B-	2g/	.
.	.	.	.	4g/
.	.	.	2e/	2g/
=61	=61	=61	=61	=61
2r	2.c\	[0.Al	2f/	[0.al
2C/	.	.	2e/	.
.	4B-\	.	.	.
2D\	4A/	.	2.f/	.
.	4G/	.	.	.
2D\	1F	.	.	.
.	.	.	8e/L	.
.	.	.	8d/J	.
[1AAl	.	.	[1cl	.
.	2E/	.	.	.
=62	=62	=62	=62	=62
0.AA]	0.El	0.A]	0.c]	0.a]
!!LO:LB:i:g=z
=63||	=63||	=63||	=63||	=63||
*>B	*>B	*>B	*>B	*>B
*clefF4	*clefGv2	*clefGv2	*clefG2	*clefG2
*k[b-]	*k[b-]	*k[b-]	*k[b-]	*k[b-]
*M2/1	*M2/1	*M2/1	*M2/1	*M2/1
*met(C2)	*met(C2)	*met(C2)	*met(C2)	*met(C2)
!!section: Et resurrexit
!!!OMD: Et resurrexit
0r	0r	0r	0d	1r
.	.	.	.	[1a
=64	=64	=64	=64	=64
0r	0r	0r	1f	1a]
.	.	.	1e	1cc
=65	=65	=65	=65	=65
0r	0r	0r	0g	1b-
.	.	.	.	[1dd
=66	=66	=66	=66	=66
0r	0r	0r	1d	1dd]
.	.	.	2r	1a
.	.	.	2d/	.
=67	=67	=67	=67	=67
0r	0r	0r	2f/	2r
.	.	.	2f/	2a/
.	.	.	4f/	2cc\
.	.	.	4e/	.
.	.	.	4f/	2cc\
.	.	.	4g/	.
=68	=68	=68	=68	=68
0r	0r	0r	1.a	4cc\
.	.	.	.	4b-\
.	.	.	.	4cc\
.	.	.	.	4dd\
.	.	.	.	[1ee
.	.	.	4g/	.
.	.	.	4f/	.
=69	=69	=69	=69	=69
0r	0r	0r	4g/	2ee\]
.	.	.	4f/	.
.	.	.	4g/	4dd\
.	.	.	4a/	4cc\
.	.	.	2b-\	4dd\
.	.	.	.	4cc\
.	.	.	4a/	4dd\
.	.	.	4g/	4ee\
=70	=70	=70	=70	=70
0r	0r	0r	2f/	2ff\
.	.	.	2f/	4ee\
.	.	.	.	4dd\
.	.	.	2e/	2cc\
.	.	.	2f/	2cc\
=71	=71	=71	=71	=71
0r	0r	0r	2d/	2b-\
.	.	.	2e/	2cc\
.	.	.	2f/	2a/
.	.	.	[2g/	2b-\
=72	=72	=72	=72	=72
0r	0r	0r	4g/]	2cc\
.	.	.	4f/	.
.	.	.	4e/	2.dd\
.	.	.	4d/	.
.	.	.	1e	.
.	.	.	.	4cc#i\
.	.	.	.	2cc#i\
=73	=73	=73	=73	=73
0D	1r	0r	0d	0dd
.	[1A	.	.	.
=74	=74	=74	=74	=74
1F	1A]	0r	0r	0r
1F	1c	.	.	.
=75	=75	=75	=75	=75
1A	1c	0r	0r	0r
2r	1e	.	.	.
2A\	.	.	.	.
=76	=76	=76	=76	=76
1.c	2r	0r	0r	0r
.	2e\	.	.	.
.	[1g	.	.	.
4B-\	.	.	.	.
4A\	.	.	.	.
=77	=77	=77	=77	=77
1B-	2g\]	0r	0r	0r
.	4f\	.	.	.
.	4e\	.	.	.
1A	1f	.	.	.
=78	=78	=78	=78	=78
2r	1e	0r	0r	0r
2A\	.	.	.	.
1c	2r	.	.	.
.	2e\	.	.	.
=79	=79	=79	=79	=79
2B-\	1g	0r	0r	0r
2G\	.	.	.	.
2A\	2f\	.	.	.
2F\	2d\	.	.	.
=80	=80	=80	=80	=80
2G\	2e\	0r	0r	0r
2D\	2.d\	.	.	.
2.E\	.	.	.	.
.	4c\	.	.	.
.	2c\	.	.	.
8D\L	.	.	.	.
8E\J	.	.	.	.
=81	=81	=81	=81	=81
2F\	2d\	0r	0r	1r
1A	2A/	.	.	.
.	1B-	.	.	1dd
2G\	.	.	.	.
=82	=82	=82	=82	=82
1A	1A	0r	1a	2cc\
.	.	.	.	2a/
1r	1r	.	2g/	2b-\
.	.	.	2e/	2g/
=83	=83	=83	=83	=83
0r	0r	0r	2f/	2a/
.	.	.	2d/	2f/
.	.	.	2e/	4e/
.	.	.	.	4d/
.	.	.	2c/	2e/
=84	=84	=84	=84	=84
1r	1d	0r	4B-/	1d
.	.	.	4A/	.
.	.	.	2B-/	.
1A	2c\	.	1A	1r
.	2A/	.	.	.
=85	=85	=85	=85	=85
2G\	2B-\	0r	0r	0r
2E\	2G/	.	.	.
2F\	2A/	.	.	.
2D\	2F/	.	.	.
=86	=86	=86	=86	=86
2E\	2.c\	0r	0r	1r
2C/	.	.	.	.
.	4A/	.	.	.
2.G\	4B-\	.	.	1b-
.	4c\	.	.	.
.	4d\	.	.	.
4E\	4e\	.	.	.
=87	=87	=87	=87	=87
2F\	2c\	0r	0r	2a/
2D\	1d	.	.	2f/
1E	.	.	.	2g/
.	2c#i\	.	.	2e/
=88	=88	=88	=88	=88
1D	1d	0r	1f	4f/
.	.	.	.	4g/
.	.	.	.	4a/
.	.	.	.	4b-\
1r	1r	.	2e/	2cc\
.	.	.	2c/	4b-\
.	.	.	.	[4a/
=89	=89	=89	=89	=89
0r	0r	0r	2d/	4a/]
.	.	.	.	4g/
.	.	.	2B-/	1g
.	.	.	1A	.
.	.	.	.	2f#i/
=90	=90	=90	=90	=90
0r	1r	[0G	1G	0g
.	1d	.	1r	.
=91	=91	=91	=91	=91
1r	1d	0G]	0g	1r
1G	1d	.	.	1dd
=92	=92	=92	=92	=92
1G	0d	0B-	1g	1dd
1G	.	.	1g	1dd
=93	=93	=93	=93	=93
0D	1d	[0A	1f	0dd
.	[1f	.	[1a	.
=94	=94	=94	=94	=94
1D	2f\]	0A]	2a/]	1dd
.	2e\	.	2g/	.
[1D	2.d\	.	2.f/	[1ff
.	4c\	.	4e/	.
=95	=95	=95	=95	=95
2D\]	0d	0B-	2d/	1ff]
2D\	.	.	1f	.
1D	.	.	.	1dd
.	.	.	4e/	.
.	.	.	4d/	.
=96	=96	=96	=96	=96
0C	0G	[0c	2.g/	2.ee\
.	.	.	4f/	4cc\
.	.	.	4e/	1cc
.	.	.	4d/	.
.	.	.	2e/	.
=97	=97	=97	=97	=97
1F	1A	0c]	2r	2r
.	.	.	1f	1cc
2F\	2A/	.	.	.
2F\	2A/	.	2f/	2cc\
=98	=98	=98	=98	=98
1BB-	2F/	1B-	2f/	2.dd\
.	2F/	.	2f/	.
.	.	.	.	4cc\
1E-	2G/	1G	[1g	4b-\
.	.	.	.	4a/
.	[2B-\	.	.	[2b-\
=99	=99	=99	=99	=99
1E-i	2B-\]	[0B-	1g]	2b-\]
.	2c\	.	.	4a/
.	.	.	.	4g/
1D	[1d	.	1r	[1f
=100	=100	=100	=100	=100
1.BB-	2d\]	0B-]	1d	1f]
.	2d\	.	.	.
.	[1d	.	[1f	[1b-
2BB-/	.	.	.	.
=101	=101	=101	=101	=101
0BB-	1d]	0B-	2f/]	2b-\]
.	.	.	2f/	2b-\
.	1d	.	1f	1b-
=102	=102	=102	=102	=102
0E-	2.e-i\	1B-	0g	2g/
.	.	.	.	1b-
.	4d\	.	.	.
.	2.B-\	2G/	.	.
.	.	[2B-\	.	4a/
.	4c\	.	.	4g/
=103	=103	=103	=103	=103
1D	[0d	2B-\]	1r	0f
.	.	4A/	.	.
.	.	4G/	.	.
1D	.	[1A	2.a/	.
.	.	.	4a/	.
=104	=104	=104	=104	=104
0D	0d]	2A/]	2a/	0r
.	.	2A/	1f	.
.	.	1B-	.	.
.	.	.	4e/	.
.	.	.	4d/	.
=105	=105	=105	=105	=105
[0C	1r	[0c	1e	1r
.	1G	.	1e	1g
=106	=106	=106	=106	=106
0C]	1G	0c_	1e	1g
.	1G	.	1e	1g
=107	=107	=107	=107	=107
0r	1A	0c]	1f	1cc
.	1F	.	1f	1cc
=108	=108	=108	=108	=108
0r	2.B-\	0G	1g	2b-\
.	.	.	.	4g/
.	4c\	.	.	4a/
.	4d\	.	1g	4b-\
.	4c\	.	.	4g/
.	[2d\	.	.	[2b-\
=109	=109	=109	=109	=109
0r	2d\]	0B-	2f/	2b-\]
.	4c\	.	4e/	4a/
.	4B-\	.	4d/	4g/
.	2d\	.	2g/	2.b-\
.	2G/	.	4f/	.
.	.	.	4e/	4a/
=110	=110	=110	=110	=110
0r	2.B-\	0d	2d/	2f/
.	.	.	2B-/	4b-\
.	4A/	.	.	4a/
.	[1F	.	[1f	4a/
.	.	.	.	4g/
.	.	.	.	[2a/
=111	=111	=111	=111	=111
0r	2F/]	1c	2f/]	2a/]
.	2G/	.	4e/	1g
.	.	.	4d/	.
.	1A	1A	1c	.
.	.	.	.	2f#i/
=112	=112	=112	=112	=112
0r	0G	1B-	0d	[0g
.	.	1G	.	.
=113	=113	=113	=113	=113
1r	0r	1c	0r	0g]
1C	.	1c	.	.
=114	=114	=114	=114	=114
1F	0r	1c	0r	0r
1F	.	1c	.	.
=115	=115	=115	=115	=115
1F	0r	2.d\	0r	0r
.	.	4c\	.	.
2F\	.	2d\	.	.
[2G\	.	[2e\	.	.
=116	=116	=116	=116	=116
4G\]	0r	2e\]	0r	0r
4F\	.	.	.	.
4E\	.	1d	.	.
4D\	.	.	.	.
1E	.	.	.	.
.	.	2c#i\	.	.
=117	=117	=117	=117	=117
[0D	0r	[0d	1f	1a
.	.	.	2f/	2a/
.	.	.	[2f/	[2b-\
=118	=118	=118	=118	=118
0D]	0r	0d]	2f/]	2b-\]
.	.	.	4e/	2a/
.	.	.	4d/	.
.	.	.	2f/	1dd
.	.	.	2f/	.
=119	=119	=119	=119	=119
0r	1A	0r	1a	1cc
.	2A/	.	2r	2cc\
.	[2B-\	.	2f/	[2dd\
=120	=120	=120	=120	=120
0r	2B-\]	0r	2g/	2dd\]
.	2A/	.	1a	2cc\
.	1d	.	.	1ff
.	.	.	4g/	.
.	.	.	4f/	.
=121	=121	=121	=121	=121
0r	2.c\	0r	2g/	2.ee\
.	.	.	1a	.
.	4B-\	.	.	4dd\
.	4A/	.	.	4cc\
.	4G/	.	.	4b-\
.	[2B-\	.	4g/	[2dd\
.	.	.	4f/	.
=122	=122	=122	=122	=122
0r	2B-\]	0r	2g/	2dd\]
.	2A/	.	1a	2cc\
.	1d	.	.	4b-\
.	.	.	.	4a/
.	.	.	4g/	2b-\
.	.	.	4f/	.
=123	=123	=123	=123	=123
0r	2.c\	0r	2g/	1cc
.	.	.	1a	.
.	4B-\	.	.	.
.	4A/	.	.	2cc\
.	4G/	.	.	.
.	[2G/	.	[2b-\	[2dd\
=124	=124	=124	=124	=124
0r	2G/]	0r	4b-\]	4dd\]
.	.	.	4a/	4cc\
.	2F/	.	1a	2a/
.	1G	.	.	1b-
.	.	.	2g/	.
=125	=125	=125	=125	=125
0D	[0d	1.f	0a	1a
.	.	.	.	1r
.	.	2f\	.	.
=126	=126	=126	=126	=126
1D	0d]	1f	0r	0r
1D	.	1f	.	.
=127	=127	=127	=127	=127
1.G	0r	1e	0r	0r
.	.	[1d	.	.
4F\	.	.	.	.
4E\	.	.	.	.
=128	=128	=128	=128	=128
2F\	0r	2d\]	0r	0r
2G\	.	4c\	.	.
.	.	4B-\	.	.
2E\	.	2c\	.	.
4D\	.	2d\	.	.
4E\	.	.	.	.
=129	=129	=129	=129	=129
4F\	0r	2B-\	0r	0r
4G\	.	.	.	.
1A	.	4A/	.	.
.	.	4B-\	.	.
.	.	4c\	.	.
.	.	4d\	.	.
2G\	.	2e\	.	.
=130	=130	=130	=130	=130
4F\	1r	4d\	0r	0r
4E\	.	4c\	.	.
4D\	.	1c	.	.
4C/	.	.	.	.
1D	1d	.	.	.
.	.	2Bni\	.	.
=131	=131	=131	=131	=131
1C	1e	1c	0r	0r
2r	[1c	1A	.	.
2F\	.	.	.	.
=132	=132	=132	=132	=132
2C/	2c\]	1c	0r	0r
2F\	4B-\	.	.	.
.	4A/	.	.	.
2E\	2G/	[1c	.	.
[2F\	[2A/	.	.	.
=133	=133	=133	=133	=133
2F\]	2A/]	1c]	0r	0r
4E\	4G/	.	.	.
4D\	4F/	.	.	.
1E	1G	1c	.	.
=134	=134	=134	=134	=134
0D	[0A	1d	1.a	1r
.	.	1d	.	1a
.	.	.	2a/	.
=135	=135	=135	=135	=135
0r	0A_	1.e	1a	1cc
.	.	.	1a	[1cc
.	.	[2f\	.	.
=136	=136	=136	=136	=136
0r	0A]	2f\]	0a	1cc]
.	.	4e\	.	.
.	.	4d\	.	.
.	.	1e	.	1cc
=137	=137	=137	=137	=137
0r	0r	2.d\	2.f/	2dd\
.	.	.	.	4b-\
.	.	4e\	4g/	4cc\
.	.	2f\	2a/	2dd\
.	.	[2g\	[2b-\	[2ee-i\
=138	=138	=138	=138	=138
0r	0r	4g\]	2b-\]	2ee-\]
.	.	4f\	.	.
.	.	2d\	2.a/	1dd
.	.	1e-i	.	.
.	.	.	4g/	.
.	.	.	2g/	2cc\
=139	=139	=139	=139	=139
0D	1f	0d	[0a	0dd
.	2f\	.	.	.
.	2f\	.	.	.
=140	=140	=140	=140	=140
0D	2d\	0r	0a]	1ff
.	4c\	.	.	.
.	4B-\	.	.	.
.	2A/	.	.	2ff\
.	2A/	.	.	2ff\
=141	=141	=141	=141	=141
1G	2B-\	0r	0r	2dd\
.	1d	.	.	4cc\
.	.	.	.	4b-\
1F	.	.	.	2a/
.	2c\	.	.	2a/
=142	=142	=142	=142	=142
1G	2B-\	0r	0r	2b-\
.	4A/	.	.	1dd
.	4G/	.	.	.
1D	4F/	.	.	.
.	4E/	.	.	.
.	2F/	.	.	2cc\
=143	=143	=143	=143	=143
2r	1G	0r	0r	2b-\
1B-	.	.	.	4a/
.	.	.	.	4g/
.	1r	.	.	4f/
.	.	.	.	4e/
2A\	.	.	.	2f/
=144	=144	=144	=144	=144
2G\	2r	0r	0r	2g/
4F\	2d\	.	.	1b-
4E\	.	.	.	.
2D\	2.f\	.	.	.
2F\	.	.	.	2a/
.	4e\	.	.	.
=145	=145	=145	=145	=145
2C/	4e\	0r	0r	4g/
.	4d\	.	.	4f/
2D\	1d	.	.	4e/
.	.	.	.	4d/
1A	.	.	.	1e
.	2c#i\	.	.	.
=146	=146	=146	=146	=146
[0D	[0d	1f	0a	0d
.	.	2f\	.	.
.	.	2f\	.	.
=147	=147	=147	=147	=147
0D]	0d]	0f	2a/	0r
.	.	.	2a/	.
.	.	.	1a	.
=148	=148	=148	=148	=148
0r	0r	1.d	1b-	0r
.	.	.	[1a	.
.	.	4c\	.	.
.	.	4B-\	.	.
=149	=149	=149	=149	=149
0r	0r	2c\	2a/]	0r
.	.	2d\	4g/	.
.	.	.	4f/	.
.	.	2e\	2g/	.
.	.	[2d\	2a/	.
=150	=150	=150	=150	=150
0r	0r	2d\]	2b-\	0r
.	.	4c\	1a	.
.	.	4B-\	.	.
.	.	2A/	.	.
.	.	[2d\	4g/	.
.	.	.	4f/	.
=151	=151	=151	=151	=151
0r	0r	4d\]	1e	0r
.	.	4c#i\	.	.
.	.	2c#i\	.	.
.	.	1d	2r	.
.	.	.	2d/	.
=152	=152	=152	=152	=152
0r	0r	2r	2f/	0r
.	.	2d\	2f/	.
.	.	2f\	4f/	.
.	.	.	4e/	.
.	.	2f\	4d/	.
.	.	.	4c/	.
=153	=153	=153	=153	=153
0r	0r	2f\	4d/	0r
.	.	.	4e/	.
.	.	4f\	4f/	.
.	.	4e\	4g/	.
.	.	4d\	2a/	.
.	.	4c\	.	.
.	.	2d\	[2b-\	.
=154	=154	=154	=154	=154
0r	1r	2A/	2b-\]	1r
.	.	2c\	1a	.
.	1d	1B-	.	1dd
.	.	.	2g/	.
=155	=155	=155	=155	=155
0r	1e	0A	0a	1cc
.	1e	.	.	1cc
=156	=156	=156	=156	=156
2r	1.f	1r	1r	0a
2D\	.	.	.	.
2F\	.	2r	2r	.
2F\	4e\	2A/	2f/	.
.	4d\	.	.	.
=157	=157	=157	=157	=157
2F\	1c	2c\	2a/	2r
2F\	.	2c\	2a/	2a/
1F	2r	2c\	2a/	2cc\
.	2A/	2c\	2a/	2cc\
=158	=158	=158	=158	=158
0C	2c\	2c\	0g	2cc\
.	2c\	1e	.	2cc\
.	2c\	.	.	1cc
.	2c\	[2c\	.	.
=159	=159	=159	=159	=159
1C	1G	2c\]	1.g	2.ee\
.	.	4B-\	.	.
.	.	4A/	.	4dd\
2G\	1r	2B-\	.	4dd\
.	.	.	.	4cc\
2A\	.	2c\	2f/	[2cc\
=160	=160	=160	=160	=160
1G	1B-	1d	1g	4cc\]
.	.	.	.	4a/
.	.	.	.	2b-\
2r	2A/	2r	1g	2cc\
2G\	2B-\	2B-\	.	[2dd\
=161	=161	=161	=161	=161
1A	1F	1c	2r	2dd\]
.	.	.	2f/	2.cc\
1G	2.B-\	1d	[1g	.
.	.	.	.	4a/
.	.	.	.	2b-\
.	4G/	.	.	.
=162	=162	=162	=162	=162
2.C/	1G	2e\	2g/]	2.cc\
.	.	2.c\	2f/	.
4D\	.	.	.	4b-\
2E\	1r	.	2e/	4a/
.	.	4B-\	.	4g/
2F\	.	4A/	2d/	[2a/
.	.	4G/	.	.
=163	=163	=163	=163	=163
1G	0r	1B-	0d	2a/]
.	.	.	.	2.g/
1D	.	1A	.	.
.	.	.	.	4f#i/
.	.	.	.	2f#i/
=164	=164	=164	=164	=164
*M3/1	*M3/1	*M3/1	*M3/1	*M3/1
*met(3)	*met(3)	*met(3)	*met(3)	*met(3)
[0.G	1r	1G	0.d	0.g
.	1r	1r	.	.
.	1d	1G	.	.
=165	=165	=165	=165	=165
0.G]	1.d	0B-	1r	1r
.	.	.	1r	1r
.	2c\	.	.	.
.	2B-\	1B-	1d	1g
.	2A/	.	.	.
=166	=166	=166	=166	=166
0.r	0G	1.B-	0g	0b-
.	.	2c\	.	.
.	1G	2d\	1g	1b-
.	.	2e-i\	.	.
=167	=167	=167	=167	=167
0.r	1G	0d	1g	0b-
.	0B-	.	1f	.
.	.	1B-	1g	1dd
=168	=168	=168	=168	=168
0.r	1A	1c	1a	1cc
.	2G/	1.d	1r	2b-\
.	2F/	.	.	2a/
.	1G	.	1r	1b-
.	.	2c\	.	.
=169	=169	=169	=169	=169
0.r	1A	1A	1a	1cc
.	1.d	1.B-	2g/	1.dd
.	.	.	2f/	.
.	.	.	1g	.
.	2e\	2A/	.	2cc\
=170	=170	=170	=170	=170
1.F	0f	0A	0a	0cc
2E\	.	.	.	.
1D	1F	1B-	1r	1dd
=171	=171	=171	=171	=171
0C	1G	1.c	1g	1.ee
.	1A	.	1e	.
.	.	2A/	.	2cc\
1r	1G	1B-	1g	1dd
=172	=172	=172	=172	=172
0F	0c	1.A	1a	1.cc
.	.	.	2f/	.
.	.	2F/	2a/	2a/
1E	1r	1G	1g	2.b-\
.	.	.	.	4cc\
=173	=173	=173	=173	=173
1F	0c	1A	1.f	1.a
0C	.	1r	.	.
.	.	.	4e/	2g/
.	.	.	4d/	.
.	1c	1e	1e	1g
=174	=174	=174	=174	=174
1.F	1.c	1.f	0A	1a
.	.	.	.	1r
2G\	2B-\	2e\	.	.
1E	1G	1c	1r	1ee
=175	=175	=175	=175	=175
2D\	1.A	1d	0a	1.ff
2E\	.	.	.	.
2F\	.	0A	.	.
2G\	2B-\	.	.	2ee\
1A	1c	.	1a	1cc
=176	=176	=176	=176	=176
0.D	0F	1.d	1a	1dd
.	.	.	1.f	1a
.	.	2c\	.	.
.	1r	2B-\	.	1dd
.	.	2A/	2g/	.
=177	=177	=177	=177	=177
0.r	0F	0A	1a	1.cc
.	.	.	1f	.
.	.	.	.	2b-\
.	1B-	1G	1g	2b-\
.	.	.	.	2a/
=178	=178	=178	=178	=178
1r	1F	1A	1f	1.a
1r	0G	0B-	1d	.
.	.	.	.	4g/
.	.	.	.	4f/
1E	.	.	1e	1g
=179	=179	=179	=179	=179
1.F	1r	[0.Al	1c	[0.al
.	1.c	.	1r	.
2E\	.	.	.	.
1C	.	.	1e	.
.	2B-\	.	.	.
=180	=180	=180	=180	=180
0D	2A/	0.A_	1.f	0.a_
.	2G/	.	.	.
.	0F	.	.	.
.	.	.	2e/	.
1AA	.	.	[1c	.
=181	=181	=181	=181	=181
[0.AAl	1E	0.A_	2c/]	0.a_
.	.	.	2d/	.
.	[0El	.	0e	.
=182	=182	=182	=182	=182
0.AA]	0.E]	0.A]	1c	0.a]
.	.	.	0cl	.
==	==	==	==	==
*-	*-	*-	*-	*-
!!!RDF**kern: l=long note in original notation
!!!RDF**kern: i=editorial accidental
!!!RDF**kern: V=start of tuplet marker
!!!RDF**kern: Z=end of tuplet marker
!!!ENC:	Chris Gage 10-08-2012
!!!END:	2012/10/13/
!!!EED:	Jesse Rodin
!!!EEV:	2012/10/13/
!!!ONB:	Translated from MusicXML and edited on 2012/10/13/ by Craig Sapp
!!muse2ps: T^@{OPR}^u^@{ONM}{. }@{OTL}^C^@{COM}^i2I150v85,85,85,85,130Q16
